packages/nodes-base/nodes/HttpRequest/httprequest.svg

<svg viewBox="0 0 40 40" xmlns="http://www.w3.org/2000/svg">
    <path fill-rule="evenodd" clip-rule="evenodd" d="M40 20C40 8.95314 31.0469 0 20 0C8.95314 0 0 8.95314 0 20C0 31.0469 8.95314 40 20 40C31.0469 40 40 31.0469 40 20ZM20 36.9458C18.8852 36.9458 17.1378 35.967 15.4998 32.6985C14.7964 31.2918 14.1961 29.5431 13.7526 27.6847H26.1898C25.8045 29.5403 25.2044 31.2901 24.5002 32.6985C22.8622 35.967 21.1148 36.9458 20 36.9458ZM12.9064 20C12.9064 21.6097 13.0087 23.164 13.2003 24.6305H26.7997C26.9913 23.164 27.0936 21.6097 27.0936 20C27.0936 18.3903 26.9913 16.836 26.7997 15.3695H13.2003C13.0087 16.836 12.9064 18.3903 12.9064 20ZM20 3.05419C21.1149 3.05419 22.8622 4.03078 24.5001 7.30039C25.2066 8.71408 25.8072 10.4067 26.192 12.3153H13.7501C14.1933 10.4047 14.7942 8.71254 15.4998 7.30064C17.1377 4.03083 18.8851 3.05419 20 3.05419ZM30.1478 20C30.1478 18.4099 30.0543 16.8617 29.8227 15.3695H36.3042C36.7252 16.842 36.9458 18.3964 36.9458 20C36.9458 21.6036 36.7252 23.158 36.3042 24.6305H29.8227C30.0543 23.1383 30.1478 21.5901 30.1478 20ZM26.2767 4.25511C27.6365 6.36019 28.711 9.132 29.3774 12.3153H35.1046C33.2511 8.668 30.107 5.78346 26.2767 4.25511ZM10.6226 12.3153H4.89293C6.75147 8.66784 9.89351 5.78341 13.7232 4.25513C12.3635 6.36021 11.289 9.13201 10.6226 12.3153ZM3.05419 20C3.05419 21.603 3.27743 23.1575 3.69484 24.6305H10.1217C9.94619 23.142 9.85222 21.5943 9.85222 20C9.85222 18.4057 9.94619 16.858 10.1217 15.3695H3.69484C3.27743 16.8425 3.05419 18.397 3.05419 20ZM26.2766 35.7427C27.6365 33.6393 28.711 30.868 29.3774 27.6847H35.1046C33.251 31.3322 30.1068 34.2179 26.2766 35.7427ZM13.7234 35.7427C9.89369 34.2179 6.75155 31.3324 4.89293 27.6847H10.6226C11.289 30.868 12.3635 33.6393 13.7234 35.7427Z" fill="#0004F5"/>
</svg>

<svg xmlns="http://www.w3.org/2000/svg" viewBox="0 0 40 40"><path fill="#0004F5" fill-rule="evenodd" d="M40 20C40 8.953 31.047 0 20 0S0 8.953 0 20s8.953 20 20 20 20-8.953 20-20M20 36.946c-1.115 0-2.862-.979-4.5-4.247-.704-1.407-1.304-3.156-1.747-5.014H26.19c-.386 1.855-.986 3.605-1.69 5.014-1.638 3.268-3.385 4.247-4.5 4.247M12.906 20c0 1.61.103 3.164.294 4.63h13.6a36 36 0 0 0 .294-4.63c0-1.61-.103-3.164-.294-4.63H13.2a36 36 0 0 0-.294 4.63M20 3.054c1.115 0 2.862.977 4.5 4.246.707 1.414 1.307 3.107 1.692 5.015H13.75c.443-1.91 1.044-3.602 1.75-5.014 1.638-3.27 3.385-4.247 4.5-4.247M30.148 20c0-1.59-.094-3.138-.325-4.63h6.481c.421 1.472.642 3.026.642 4.63s-.22 3.158-.642 4.63h-6.481c.231-1.492.325-3.04.325-4.63M26.277 4.255c1.36 2.105 2.434 4.877 3.1 8.06h5.728a16.98 16.98 0 0 0-8.828-8.06m-15.654 8.06h-5.73c1.858-3.647 5-6.532 8.83-8.06-1.36 2.105-2.434 4.877-3.1 8.06M3.054 20c0 1.603.223 3.157.64 4.63h6.428a40 40 0 0 1-.27-4.63c0-1.594.094-3.142.27-4.63H3.695a17 17 0 0 0-.64 4.63m23.223 15.743c1.36-2.104 2.434-4.875 3.1-8.058h5.728a16.96 16.96 0 0 1-8.828 8.058m-12.554 0a17 17 0 0 1-8.83-8.058h5.73c.666 3.183 1.74 5.954 3.1 8.058" clip-rule="evenodd"/></svg>
